findly-builder/apps/searchassist/src/assets/icons/edit.svg

<svg width="16" height="16" viewBox="0 0 16 16" fill="none" xmlns="http://www.w3.org/2000/svg">
<rect width="16" height="16" fill="#D8D8D8" fill-opacity="0.01"/>
<path d="M6.95226 2.51644C6.95226 2.23122 6.72104 2 6.43582 2H3.30031L3.23542 2.00159C2.54752 2.03537 2 2.60326 2 3.2998V12.7002L2.00159 12.7651C2.03541 13.4532 2.60404 14 3.30031 14H12.7068L12.7717 13.9984C13.4596 13.9646 14.0072 13.3967 14.0072 12.7002V8.78337L14.005 8.73636C13.9813 8.47317 13.7601 8.26693 13.4907 8.26693C13.2055 8.26693 12.9743 8.49815 12.9743 8.78337V12.7002L12.9722 12.7337C12.9557 12.8654 12.8434 12.9671 12.7068 12.9671H3.30031L3.26673 12.965C3.13473 12.9486 3.03287 12.8364 3.03287 12.7002V3.2998L3.03495 3.26629C3.05143 3.13459 3.16379 3.03287 3.30031 3.03287H6.43582L6.48283 3.03076C6.74602 3.00702 6.95226 2.78581 6.95226 2.51644Z" fill="#202124"/>
<path fill-rule="evenodd" clip-rule="evenodd" d="M11.5579 2.15114L6.85464 6.85134C6.75772 6.9482 6.70326 7.07961 6.70326 7.21663V8.78337C6.70326 9.06859 6.93448 9.2998 7.2197 9.2998H8.78745C8.92436 9.2998 9.05567 9.24544 9.15251 9.14866L13.8558 4.44846C14.0576 4.24676 14.0576 3.91958 13.8558 3.71787L12.288 2.15114C12.0864 1.94962 11.7596 1.94962 11.5579 2.15114ZM11.9227 3.24623L12.76 4.08285L8.57359 8.26664H7.736V7.43033L11.9227 3.24623Z" fill="#202124"/>
</svg>

<svg width="16" height="16" fill="none" xmlns="http://www.w3.org/2000/svg"><path fill="#D8D8D8" fill-opacity=".01" d="M0 0h16v16H0z"/><path d="M6.952 2.516A.516.516 0 0 0 6.436 2H3.3l-.065.002A1.3 1.3 0 0 0 2 3.3v9.4l.002.065A1.3 1.3 0 0 0 3.3 14h9.407l.065-.002a1.3 1.3 0 0 0 1.235-1.298V8.783l-.002-.047a.516.516 0 0 0-1.03.047V12.7l-.003.034a.267.267 0 0 1-.265.233H3.3l-.033-.002a.267.267 0 0 1-.234-.265V3.3l.002-.034a.267.267 0 0 1 .265-.233h3.136l.047-.002a.516.516 0 0 0 .47-.515Z" fill="#202124"/><path fill-rule="evenodd" clip-rule="evenodd" d="m11.558 2.151-4.703 4.7a.516.516 0 0 0-.152.366v1.566c0 .286.231.517.517.517h1.567a.516.516 0 0 0 .366-.151l4.703-4.7a.517.517 0 0 0 0-.731L12.288 2.15a.516.516 0 0 0-.73 0Zm.365 1.095.837.837-4.186 4.184h-.838V7.43l4.187-4.184Z" fill="#202124"/></svg>
